X: 490
M: 6/4
L: 1/4
K: F
f/e/ |\
f2F F>GA | B2G G>AB |\
c2C C>DE | F2F F2 :|\
|: A/B/ |\
c2c c>dc | d2d d>ef |
g2g g>ag/f/ | e3 c2a |\
b>ag f>ed | e>fg c>BA |\

